src/components/Icon/svg-icon/main/blog.svg

<svg xmlns="http://www.w3.org/2000/svg" xmlns:xlink="http://www.w3.org/1999/xlink" width="24" height="24" viewBox="0 0 24 24">
  <defs>
    <path id="blog-a" d="M10,4 L10,5.5 C10.2864598,5.5 10.5716132,5.51432277 10.8554688,5.54296875 C11.1393243,5.57161473 11.4192695,5.61197891 11.6953125,5.6640625 C11.9713555,5.72135445 12.2434882,5.79166625 12.5117188,5.875 C12.7799493,5.95833375 13.0442695,6.05468695 13.3046875,6.1640625 C13.5598971,6.27343805 13.8072905,6.39322852 14.046875,6.5234375 C14.2864595,6.65364648 14.518228,6.79427008 14.7421875,6.9453125 C14.9713553,7.09635492 15.1914052,7.25911371 15.4023438,7.43359375 C15.6132823,7.60807379 15.8151032,7.79426984 16.0078125,7.9921875 C16.2057302,8.1848968 16.3919262,8.3867177 16.5664062,8.59765625 C16.7408863,8.8085948 16.9036451,9.02864469 17.0546875,9.2578125 C17.2057299,9.48177195 17.3463535,9.71354047 17.4765625,9.953125 C17.6067715,10.1927095 17.726562,10.4401029 17.8359375,10.6953125 C17.945313,10.9557305 18.0416663,11.2200507 18.125,11.4882812 C18.2083337,11.7565118 18.2786455,12.0286445 18.3359375,12.3046875 C18.3880211,12.5807305 18.4283853,12.8606757 18.4570312,13.1445312 C18.4856772,13.4283868 18.5,13.7135402 18.5,14 L20,14 C20,12.6197848 19.7382839,11.3229227 19.2148438,10.109375 C18.6914036,8.89582727 17.976567,7.83594203 17.0703125,6.9296875 C16.164058,6.02343297 15.1041727,5.30859637 13.890625,4.78515625 C12.6770773,4.26171613 11.3802152,4 10,4 Z M10,7 L10,8.5 C10.3697935,8.5 10.730467,8.5351559 11.0820312,8.60546875 C11.4335955,8.6757816 11.77604,8.77864516 12.109375,8.9140625 C12.4375016,9.04947984 12.7513006,9.21744691 13.0507812,9.41796875 C13.3502619,9.61849059 13.630207,9.84895703 13.890625,10.109375 C14.151043,10.369793 14.3815094,10.6497381 14.5820312,10.9492188 C14.7825531,11.2486994 14.9505202,11.5624984 15.0859375,11.890625 C15.2213548,12.22396 15.3242184,12.5664045 15.3945312,12.9179688 C15.4648441,13.269533 15.5,13.6302065 15.5,14 L17,14 C17,13.0312452 16.8164081,12.1224001 16.4492188,11.2734375 C16.0820294,10.4244749 15.5833365,9.68229484 14.953125,9.046875 C14.3177052,8.41666352 13.5755251,7.91797059 12.7265625,7.55078125 C11.8775999,7.18359191 10.9687548,7 10,7 Z M11.5,10 L10.5,11 L7,12 L4,18.5 L4.3984375,18.8984375 L8.03125,15.2578125 C8.02604164,15.2369791 8.02213543,15.2161459 8.01953125,15.1953125 C8.01692707,15.1744791 8.01302086,15.1536459 8.0078125,15.1328125 C8.0078125,15.1119791 8.00651043,15.0898439 8.00390625,15.0664062 C8.00130207,15.0429686 8,15.0208334 8,15 C8,14.8593743 8.02604141,14.7291673 8.078125,14.609375 C8.13020859,14.4895827 8.20052039,14.382813 8.2890625,14.2890625 C8.38281297,14.2005204 8.48958273,14.1302086 8.609375,14.078125 C8.72916727,14.0260414 8.8593743,14 9,14 C9.1406257,14 9.27083273,14.0260414 9.390625,14.078125 C9.51041727,14.1302086 9.61718703,14.2005204 9.7109375,14.2890625 C9.79947961,14.382813 9.86979141,14.4895827 9.921875,14.609375 C9.97395859,14.7291673 10,14.8593743 10,15 C10,15.1406257 9.97395859,15.2708327 9.921875,15.390625 C9.86979141,15.5104173 9.79947961,15.617187 9.7109375,15.7109375 C9.61718703,15.7994796 9.51041727,15.8697914 9.390625,15.921875 C9.27083273,15.9739586 9.1406257,16 9,16 C8.97916656,16 8.95703137,15.9986979 8.93359375,15.9960938 C8.91015613,15.9934896 8.88802094,15.9921875 8.8671875,15.9921875 C8.84635406,15.9869791 8.82552094,15.9830729 8.8046875,15.9804688 C8.78385406,15.9778646 8.76302094,15.9739584 8.7421875,15.96875 L5.1015625,19.6015625 L5.5,20 L12,17 L13,13.5 L14,12.5 L11.5,10 Z"/>
  </defs>
  <use fill="#677078" xlink:href="#blog-a"/>
</svg>

<svg xmlns="http://www.w3.org/2000/svg" xmlns:xlink="http://www.w3.org/1999/xlink" width="24" height="24"><defs><path id="a" d="M10 4v1.5c.286 0 .572.014.855.043.284.029.564.069.84.121a8.729 8.729 0 011.61.5 8.872 8.872 0 011.437.781 7.577 7.577 0 011.266 1.047 7.65 7.65 0 011.047 1.266 8.512 8.512 0 011.28 3.047c.053.276.093.556.122.84.029.283.043.569.043.855H20c0-1.38-.262-2.677-.785-3.89a10.114 10.114 0 00-2.145-3.18 10.114 10.114 0 00-3.18-2.145A9.717 9.717 0 0010 4zm0 3v1.5a5.504 5.504 0 013.05.918 5.564 5.564 0 011.531 1.531 5.372 5.372 0 01.814 1.969c.07.352.105.712.105 1.082H17c0-.969-.184-1.878-.55-2.727a7.172 7.172 0 00-1.497-2.226 7.172 7.172 0 00-2.226-1.496A6.794 6.794 0 0010 7zm1.5 3l-1 1L7 12l-3 6.5.398.398 3.633-3.64a.527.527 0 01-.011-.063.527.527 0 00-.012-.062.603.603 0 00-.004-.067.969.969 0 01.074-.457c.052-.12.123-.226.211-.32.094-.088.2-.159.32-.21A.969.969 0 019 14c.14 0 .27.026.39.078.12.052.227.123.32.211.09.094.16.2.212.32.052.12.078.25.078.391 0 .14-.026.27-.078.39-.052.12-.123.227-.211.32-.094.09-.2.16-.32.212a.969.969 0 01-.457.074.603.603 0 00-.067-.004.527.527 0 00-.062-.012.527.527 0 01-.063-.011l-3.64 3.633L5.5 20l6.5-3 1-3.5 1-1-2.5-2.5z"/></defs><use fill="#677078" xlink:href="#a"/></svg>
